X:1
T:I Know That My Redeemer Liveth
T:I Know That My Redeemer Liveth
T:James Henry Fillmore, Sr.
T:Jessie Brown Pounds, 1893
T:Public Domain Courtesy of the Cyber Hymnal™
T:Public Domain Courtesy of the Cyber Hymnal™
C:James Henry Fillmore, Sr.
Z:Public Domain
Z:Courtesy of the Cyber Hymnal™
%%score ( 1 2 ) ( 3 4 )
L:1/8
Q:1/4=105
M:4/4
K:C
V:1 treble 
V:2 treble 
V:3 bass 
V:4 bass 
V:1
 [EG]2 | [EG]3 [CE] [Ec][Ec][GB][FA] | ([EG]3 [DF]) [CE][CE][B,D][CE] | ([DF]4 [DF])[B,D][EG][DF] | %4
w: 1.~I|know that my Re- deem- er|liv- * eth, And on the|earth * a- gain shall|
w: 2.~I|know His prom- ise ne- ver|fail- * eth, The Word He|speaks, * it can- not|
w: 3.~I|know my man- sion He pre-|par- * eth, That where He|is * there I may|
 [CE]6 [EG]2 | [EG]3 [CE] [Ec][Ec][GB][FA] | ([EG]3 [DF]) [CE][CE][CE][CE] | %7
w: stand; I|know e- ter- nal life He|giv- * eth, That grace and|
w: die; Though|crue- l death my flesh as-|sail- * eth, Yet I shall|
w: be; O|won- drous thought, for me He|car- * eth, And He at|
 ([B,D]4 [B,D])[B,G][DB][CA] | ([B,G]4 [B,G]) ||"^Refrain" G^FG | (d- d3-) [Fd][FB][FA][FB] | %11
w: power * are in His|hand. *|||
w: see * Him by and|by. *|I know, I|know, * that Je- sus liv-|
w: last * will come for|me. *|||
 c>G ([EG]2 [EG])G^FG | (d- d4) [FB][FA][FB] | ([Ec]4 [Ec])G^FG | (e- e3-) e[Gd][Gc][GB] | %15
w: ||||
w: * * eth, * And on the|earth * a- gain shall|stand; * I know, I|know, * * that life He|
w: ||||
 ([GB]>[FA]) [FA]3 ABc | (G- G4) [Ec] [Fd]>[Ec] | [Ec]6 |] %18
w: |||
w: giv- * eth, That grace and|power * are in His|hand.|
w: |||
V:2
 x2 | x8 | x8 | x8 | x8 | x8 | x8 | x8 | x5 || x3 | x F F F x4 | E2 x6 | x (FFF F) x3 | x8 | %14
 x (GGG G) x3 | x8 | x (EEE E) x3 | x6 |] %18
V:3
 [C,C]2 | [C,C]3 [C,G,] [C,G,][C,G,][C,A,][C,B,] | (C3 G,) [C,G,][C,G,][D,G,][C,G,] | %3
 ([G,,B,]4 [G,,B,])[G,,G,][G,,G,][G,,G,] | [C,G,]6 [C,C]2 | %5
 [C,C]3 [C,G,] [C,G,][C,G,][C,A,][C,B,] | (C3 G,) [C,G,][C,G,][C,G,][C,G,] | %7
 ([D,G,]4 [D,G,])[D,G,][D,^F,][D,F,] | ([G,,G,]4 [G,,G,]) || z z2 | %10
 z [G,B,][G,B,][G,B,] [G,B,][G,D]D x | (G,>C) ([C,C]2 [C,C]) z z2 | %12
 z ([G,B,][G,B,][G,B,] [G,B,])[G,D][G,D]G, | ([E,G,]4 [E,G,]) z z2 | %14
 z ([C,C][C,C][C,C] [C,C])[D,B,][E,C][E,C] | [F,C]2 [F,C]3 z z2 | %16
 z ([G,C][G,C][G,C] [G,C])G, [G,B,]>G, | [C,G,]6 |] %18
V:4
 x2 | x8 | C,4 x4 | x8 | x8 | x8 | C,4 x4 | x8 | x5 || x3 | x6 G,G, | C,2 x6 | x7 G, | x8 | x8 | %15
 x8 | x5 G, x/ G,/ x | x6 |] %18

